src/assets/icon-open-issue.svg

<svg xmlns="http://www.w3.org/2000/svg" width="15.98" height="16" preserveAspectRatio="xMidYMid" viewBox="0 0 799 800">
  <path d="M400 800C179.44 800 0 620.562 0 400.002S179.44 0 400 0s400 179.442 400 400.002S620.56 800 400 800zm0-727.273c-180.46 0-327.273 146.817-327.273 327.275 0 180.459 146.813 327.27 327.273 327.27 180.458 0 327.272-146.811 327.272-327.27 0-180.458-146.811-327.275-327.272-327.275zm-.005 193.939c-26.729 0-48.476-21.74-48.476-48.462 0-26.747 21.747-48.507 48.476-48.507 26.73 0 48.476 21.76 48.476 48.507 0 26.722-21.746 48.462-48.476 48.462zm.005 72.728c20.082 0 36.363 16.281 36.363 36.364v218.181c0 20.082-16.281 36.364-36.363 36.364s-36.363-16.282-36.363-36.364V375.758c0-20.083 16.281-36.364 36.363-36.364z" class="cls-1"/>
</svg>

<svg xmlns="http://www.w3.org/2000/svg" xmlns:xlink="http://www.w3.org/1999/xlink" preserveAspectRatio="xMidYMid" width="15.98" height="16" viewBox="0 0 799 800">
  <defs>
    <style>
      .cls-1 {
        fill: #fff;
        fill-rule: evenodd;
      }
    </style>
  </defs>
  <path d="M400.000,800.000 C179.440,800.000 -0.000,620.562 -0.000,400.002 C-0.000,179.442 179.440,0.000 400.000,0.000 C620.560,0.000 800.000,179.442 800.000,400.002 C800.000,620.562 620.560,800.000 400.000,800.000 ZM400.000,72.727 C219.540,72.727 72.727,219.544 72.727,400.002 C72.727,580.461 219.540,727.272 400.000,727.272 C580.458,727.272 727.272,580.461 727.272,400.002 C727.272,219.544 580.461,72.727 400.000,72.727 ZM399.995,266.666 C373.266,266.666 351.519,244.926 351.519,218.204 C351.519,191.457 373.266,169.697 399.995,169.697 C426.725,169.697 448.471,191.457 448.471,218.204 C448.471,244.926 426.725,266.666 399.995,266.666 ZM400.000,339.394 C420.082,339.394 436.363,355.675 436.363,375.758 L436.363,593.939 C436.363,614.021 420.082,630.303 400.000,630.303 C379.918,630.303 363.637,614.021 363.637,593.939 L363.637,375.758 C363.637,355.675 379.918,339.394 400.000,339.394 Z" class="cls-1"/>
</svg>
